X:1356
T:Monahan's Waltz
S:Valcartier Waltz learned from Eric Favreau
M:3/4 
L:1/8
Z:<http://tunes.nhcountrydance.com>.
K:D
[| Ad |\
"D" f2 A2 d2 | "D" f2 fa gf    | "A7" e2 c2 (Ac) | "D" ({c}d2)>e2 dc |
"G" B2 G2 B2 | "D" A2 F2 [AF]F | "A7"  G2 E2 AF  |1 "D" D2> A2    :|2 "D" D2 |]
[| .F2.F2 |\
"D" A,2 D2 E2| "D" F4 GF       | "A7"  E2 C2>B2  | "D"  A2>z2 AB    |
"A7" A2 E2>F2| "A7"  G2 c2>B2  | "A7"  A2 G2 B2  | "D" A2 .F2 .F2  ||
"D" A,2 D2 E2| "D" F4 GF       | "A7"  E2 C2>B2  | "D"  A2>A2 Bc    |
"G" d2>e2 dB | "D" A2 F2 [AF]F | "A7"  G2 E2 AF  | "D" D2>A2       |] 

